!!!SOCIAL_FUNCTION: songs of the kitsita society
!!!SOCIAL_FUNCTION2: Kitsita Society
!!!PDT:	1929
!!!LING_GROUP: Caddoan
!!!LANG: Non-Tone
!!!REG: Oklahoma
!!!COM: Anon.
!!!OTL: Lance Dance Song (a)
!!!ODT: <1920//
!!!MPN: Tsastawinahiigat [She led a phony into the ceremony, Effie Blain]
!!!MLC: Pawnee, Oklahoma, United States of America
!! Song was recorded either 1919 or 1920.
!!!AGN: monody
!!!AMT: irregular
!!!RWG: Transcribed pitches, durations, and meters are only approximate.
!! Drum not recorded
**kern
*ICvox
*Ifemale
*clefG2
*k[f#]
*MM56
*[A,A]
*>A
*M3/4
=!|:1
4b;
8.b
16b
8.a
16f#
=2
2e
16e
16f#
16e
16f#
*M2/4
=3
8e
16e
16f#
4e
=4
4.e
8f#
*M3/4
=5
4e
4.e
8e
=6
8.f#
16f#
4e
16e
8.d
*M2/4
=7
4.B
16A
16B
=8
12B
12A
12B
4G
*M3/4
=9
2E
4G#
*M2/4
=10
8.B
16B
4G#
=11
16E
8.G#
8.E
16E
=12
4.E
8G#
=13
2E
==:|!
*-
!!!HAO: [no description]
!!!HTX: [no free translation]
!!!CNT: Pawnee
!!!TXO: Pawnee
!!!OCY: United States
!!!OCL: Frances Densmore
!!!YOR: Frances Densmore, "Pawnee Music"
!!!YOR: Bulletin 93, page 55, No. 27
!!!PPR: Smithsonian Institution, Bureau of American Ethnology
!!!PPR: Government Printing Office
!!!PDT: 1926
!!!PPP: Washington, DC, United States of America
!!!YEC: Electronic Copyright 2000 David Huron
!!!YER: September 2000
!!!YEN: United States of America
!!!ENC: David Huron
!!!RDT: September 3, 2000
!!!EEV: Release 1.0
!!!AIN: vox
